X: 4578
T:Untitled Reel #2
N:Reel, from Chirps at a workshop
M:2/4
L:1/16
Z:posted by Loretta Reardon 6/97
K:G
FE|DEGA BGB2|:d4 d2d2|dedB AGAc|d2dB d2dB|
BAGB AGEG|DEGA BAGB :|
dBGB AGBc|dBGB AGBc|dBGB AGEG|
[1 DEGA BAGB :|
[2 dBGB AG
